X:1
T:YOU'RE GONNA NEED SOMEONE BY YOUR SIDE
C:Nevins
Z:All Rights Reserved
L:1/8
Q:1/4=120
M:4/4
K:C
V:1 treble nm="MusicXML Part"
%%MIDI program 0
V:1
"E7b9" z2 z2 z2 z2 |"Em" z4 z2 BA |"Am9" B2 G2 AG^FE |"Em" B2 G2- G>G G/A/B- |"B7" B2 z ^F FFFG | %5
w: |With the|world's fate rest ing on your|should er _ you're gon na need|_ some one on your side|
"Em" E6 BG |"Am" A/BA/- AG E2 EG |"Em" B2 G2- G>G G/G/G- |"B7" ^F4 FFFG |"Em" E8 | z2 z2 z2 z2 | %11
w: _ you can't|do it by _ your self an y|long er _ you're gon na need|_ some one on your|side||
 z2 z2 z2 z2 |"Am" BAAG AG ^F/GF/- |"Em" FE- E6 |"B7" z4 BA AA/B/- |"Em" B4 z2 B2 | %16
w: |Some one kind ly told me that you'd wast|_ ed _|Eight of nine _ lives|_ Ahh,|
"Am" AB AG/E/- E2- E/G/E/G/ |"Em" B2 G2- G>G G/G/G |"B7" ^F4 FFFG |"Em" E4- EG G/^F/E | %20
w: give your self a break _ _ be fore you|break down _ you're gon na need|_ some bod y soon|_ _ And here _ I|
"Am9" z B- B4 G/^F/E |"Em" z B- B4 AA/B/- |"Am" BB- BA/A/- AG-G-G- |"B7" ^F8 |"Em" z2 z2 z2 z2 |: %25
w: AM _ and here I|Am! _ Well, you don't|_ have to look so _ pleased! _ _|_||
"Em" z2 z2 z B-BG |"Am" E4 z A A/G^F/ |"Em" z E- E2- E>G G/G/G |"B7" ^F3 F FF FG/E/ :: %29
w: Day _ or|nite there is no dif|'frence _ _ you're gon na need|_ some one by yor side _|
"Em" z2 z2 z2 z2 :| %30
w: |

